packages/common/src/components/atoms/Icon/icons/family-regular.svg

<svg viewBox="0 0 24 24">
  <path fill="currentColor" d="M12 12.75a10.61 10.61 0 0 1 4.24.9c1.08.48 1.76 1.56 1.76 2.73V17c0 .55-.45 1-1 1H7c-.55 0-1-.45-1-1v-.6c0-1.18.68-2.26 1.76-2.73a10.44 10.44 0 0 1 4.24-.91zM4 13c1.1 0 2-.9 2-2s-.9-2-2-2-2 .9-2 2 .9 2 2 2zm1.13 1.1C4.76 14.04 4.4 14 4 14a6.95 6.95 0 0 0-2.78.58A2.01 2.01 0 0 0 0 16.43V17c0 .55.45 1 1 1h3.5v-1.6a4.5 4.5 0 0 1 .63-2.29zM20 13c1.1 0 2-.9 2-2s-.9-2-2-2-2 .9-2 2 .9 2 2 2zm4 3.43a2.01 2.01 0 0 0-1.22-1.85A6.95 6.95 0 0 0 20 14c-.4 0-.76.04-1.13.1a4.5 4.5 0 0 1 .63 2.29V18H23c.55 0 1-.45 1-1v-.57zM12 6c1.66 0 3 1.34 3 3s-1.34 3-3 3-3-1.34-3-3 1.34-3 3-3z" id="A"/>
</svg>

<svg viewBox="0 0 24 24">
    <defs>
        <path d="M12,12.75 C13.63,12.75 15.07,13.14 16.24,13.65 C17.32,14.13 18,15.21 18,16.38 L18,17 C18,17.55 17.55,18 17,18 L7,18 C6.45,18 6,17.55 6,17 L6,16.39 C6,15.21 6.68,14.13 7.76,13.66 C8.93,13.14 10.37,12.75 12,12.75 Z M4,13 C5.1,13 6,12.1 6,11 C6,9.9 5.1,9 4,9 C2.9,9 2,9.9 2,11 C2,12.1 2.9,13 4,13 Z M5.13,14.1 C4.76,14.04 4.39,14 4,14 C3.01,14 2.07,14.21 1.22,14.58 C0.48,14.9 0,15.62 0,16.43 L0,17 C0,17.55 0.45,18 1,18 L4.5,18 L4.5,16.39 C4.5,15.56 4.73,14.78 5.13,14.1 Z M20,13 C21.1,13 22,12.1 22,11 C22,9.9 21.1,9 20,9 C18.9,9 18,9.9 18,11 C18,12.1 18.9,13 20,13 Z M24,16.43 C24,15.62 23.52,14.9 22.78,14.58 C21.93,14.21 20.99,14 20,14 C19.61,14 19.24,14.04 18.87,14.1 C19.27,14.78 19.5,15.56 19.5,16.39 L19.5,18 L23,18 C23.55,18 24,17.55 24,17 L24,16.43 Z M12,6 C13.66,6 15,7.34 15,9 C15,10.66 13.66,12 12,12 C10.34,12 9,10.66 9,9 C9,7.34 10.34,6 12,6 Z" id="path-1-family"></path>
    </defs>
    <g id="icon-/-family" stroke="none" stroke-width="1" fill="none" fill-rule="evenodd">
        <rect id="bounding-box" x="0" y="0" width="24" height="24"></rect>
        <mask id="mask-2-family" fill="white">
            <use xlink:href="#path-1-family"></use>
        </mask>
        <use id="Shape" fill="#000000" fill-rule="nonzero" xlink:href="#path-1-family"></use>
        <g id="color-/-slate-/-base" mask="url(#mask-2-family)" fill="currentColor" fill-rule="nonzero">
            <rect id="color" x="0" y="0" width="24" height="24"></rect>
        </g>
    </g>
</svg>
